X: 35
T: Flyvegal
B:[[Notböcker/Melodier til gamle danske Almuedanse for Violin solo]]
O:Danmark
Z:Søren Bak Vestergaard
M: 3/4
L: 1/8
K: D
gf g2 b2|af d2 f2|ge c2 e2|fe d2 f2|gf g2 b2|af d2 f2|ge c2 e2|d4 z2:|\
|:[K: G]!downbow!cB c2 e2|dB G2 B2|cA F2 A2|BA G2 B2|cB c2 e2|dB G2 B2|cA F2 A2|G4 z2:|

